icons/tablet.svg

<svg width="24" height="24" viewBox="0 0 24 24" fill="none" xmlns="http://www.w3.org/2000/svg">
<path fill-rule="evenodd" clip-rule="evenodd" d="M4 3C4 2.44772 4.44772 2 5 2H19C19.5523 2 20 2.44772 20 3V21C20 21.5523 19.5523 22 19 22H5C4.44772 22 4 21.5523 4 21V3ZM6 4V20H18V4H6ZM11 18C11 17.4477 11.4477 17 12 17H12.01C12.5623 17 13.01 17.4477 13.01 18C13.01 18.5523 12.5623 19 12.01 19H12C11.4477 19 11 18.5523 11 18Z" fill="black"/>
</svg>

<svg
  width="24"
  height="24"
  viewBox="0 0 24 24"
  xmlns="http://www.w3.org/2000/svg"
>
  <path
    fill-rule="evenodd"
    clip-rule="evenodd"
    d="M4 3a1 1 0 0 1 1-1h14a1 1 0 0 1 1 1v18a1 1 0 0 1-1 1H5a1 1 0 0 1-1-1V3zm2 1v16h12V4H6zm5 14a1 1 0 0 1 1-1h.01a1 1 0 1 1 0 2H12a1 1 0 0 1-1-1z"
  />
</svg>
